X:1
T:Greensleeves (C major arrangement)
C:Traditional English, 16th century; arr. for floor harp in C major
M:3/4
L:1/8
Q:3/4=54
K:C
|: A2 | c3 B A2 | F3 G A2 | B3 A F2 | D4 E2 |
   F3 A c2 | B3 A G2 | A3 G F2 | A4 A2 |
   c3 B A2 | F3 G A2 | B3 A F2 | D4 E2 |
   F3 E F2 | G3 F E2 | c3 B A2 | A6 |]
